!!!OTL: 68. Grosse Waesche.
!!!ARE: Europa, Mitteleuropa, Deutschland, Thueringen
!!!SCT: K2068
!!!TXL: @@DE
!!!YEM: Copyright 1995, estate of Helmut Schaffrath.
**kern	**text
*clefG2	*
*M2/4	*
*k[b-]	*
*F:	*
=1	=1
{8cc	Rin-
8cc	-gel,
8dd	Rin-
8dd	-gel,
=2	=2
8cc	Ro-
8cc	-ſen-
4a}	-kranʒ!
=3	=3
{8cc	ſetʒ'
8cc	ein
8dd	Töpf-
8dd	-chen
=4	=4
8cc	Waſ-
8cc	-ſer
4a}	bei,
=5	=5
{8cc	mor-
8cc	-gen
8dd	woll'n
8dd	wie
=6	=6
4cc	wa-
8a	-ſchen,
8r}	.
=7	=7
{8cc	klei-
8cc	-ne
8a	Wä-
8a	-ſche,
=8	=8
8cc	gro-
8cc	-ße
8a	Wä-
8a}	-ſche,
=9	=9
{8cc	al-
8cc	-ler-
8dd	-hand
8dd	ſehr
=10	=10
8cc	ſchö-
8cc	-ne
8a	Wä-
8a	-ſche.
=11||	=11||
8r}	.
{8cc	Ki-
8cc	-ke-
8cc	-ri-
=12	=12
!LO:TX:a:t=*	!
2ff}	-ki!
==	==
!!!AGN: Kinder - Lied, Reigen, Tanz - Spiel
!!!ONB: ESAC (Essen Associative Code) Database: KINDER
!!!AMT: simple duple
!!!AIN: vox
!!!EED: Helmut Schaffrath
!!!EEV: 1.0
!!Aus Thueringen, Sachsen, Brandenburg und Hessen.
!!!GTL: Zweites Buch. Kinderspiel: 2. Reigen und Tanzspiele. / A. Ringelreihen mit Niederfallen.
!!@@COMMENT:"Text ziemlich gleich bei Frischbier Rr. 667 aus Pommerellen. Vergl. Simrock 830. Foelsing 92.
!!*Bei diesem Rufe, mehr geschrieen als gesungen, ducken sich die Kinder nieder."
!!@@END:
!!!URL-scan: https://archive.org/details/DeutschesKinderliedUndKinderspiel/page/442/mode/1up
!!!ENC: Anna Maria Matuszewska
!!!EEV: 2024/02/09
*-	*-
